X: 873
T: Santa Claus
C:Bill Monroe (Monroe's break)
B: jims roots
M:C
L:1/16
Q: 1/4=100
K:G
V:1 
"G"dd'ba gede dBAG G2DD | "C"DEGB AGGA "G"B2[G,2G] [G,2G]^ccd |
"G"dd'ba gede dBAG G2DD | "A"EE2E GGFF "D"[F2d][F2d] [Fd]zAA ||
"G"dd'ba gede dBAG G2DD | "C"EGGB AGGA y"B7"{_B}=B2BB B2DD |
"C"EG2B AGGA "G"BAGE- "E"Eee2 | "A7"dB2B "D"ABAF "G"G2GG G2ef ||
"G"gdef gdeg gage dcBA | "C"GGGB AGGB "G"B2G,2 [G2B2g2]eg |
"G"gaeg gegg gage dBBd | "A"Ay{c}^cc[ca]- [ca][ca][ca][DA] "D"[F2d][F2d] [F2d]ef ||
"G"gdeg gdeg gage dcBA | "C"GGGB AGGA y"B7"{_B}=B4- B2D2 |
"C"EG2B AGGA "G"BAGE- "E"Ee2e | "A7"dBBB "D"ABAG "G"G2[G2B2g2][G2B2g2] z2 |]
% abcbook-tune_id 6298c287af5ded1ab251622a


% abcbook-boost 0
% abcbook-tablature 
% abcbook-transpose 
% abcbook-lastupdated 1654178440189
% abcbook-soundfonts 
% abcbook-repeats 1


